X:192
T:B192-  The hobbyhorse
S:(1st/2)
Q:1/4=120
L:1/4
M:6/4
K:D
A|d3/2c/2BA3/2G/2F|G2GG3/2A/2B|A2AA2d|e2dc3/2B/2c|\
d2DD2D|D3/2E/2DD3/2E/2D|(D3D2||A|d3/2e/2ff3/2e/2f|\
g2gg2a|f2ff3/2g/2a|e2ee2A|d3/2e/2fa3/2g/2f|\
g2gf3|e2dc3/2B/2c|d2DD2D|D2DD2D|(D3D2)|]
